X:30
T: Ritter und Magd
N: Q0055c
O: Osteuropa, Tschechoslowakei, Sudetenland
N: Grundton in der zweigestrichenen Oktave.
N: Dritte Zeile = Refrain auf sinnfreie Silben.
R: Ballade, Betrug, Schwangerschaft, Tod, Selbstmord, Herr und Magd
M: 2/4
L: 1/16
K: D
A,2 | F3FFFEE | D3DD2A,2 |
D3DG2F2 | F4E2
A,2 | E2EEE2D2 | C3CC2
B,2 | A,2A,2F2E2 | E4D2

